X: 7406
T: Clog, The
R: slide
M: 12/8
K: Gmajor
|:ABA A2G F2G A2B|cBc e2d B3 B2A|
ABA A2G F2G A2B|cBc d2B G3G3:|
d2g gfg f2A A2B|cBc e2d B3 B2c|
d2g gfg d2 A A2B|cBc d2B G3 G3|
d2g gfg d2A A2B|cBc e2d B3 B2G|
ABA A2G F2G A2B|cBc d2B G3G3|

